X: 10
T:Earl Grey
M:4/4
L:1/8
R:Strathspey
K:A
E2|"A"A>BA>E "D"F>A"A"E>c|"Bm"d>B d/c/B/A/ "E"Gc|"A"A>BA>E "D"F>A"A"
E>c|
"Bm"(3def "E"(3efg "A"(3aed "E"(3cdB|!
"A"A>BA>E "D"F>A"A"E>c|
"Bm"d>B d/c/B/A/ "E"Gc|"A"A>BA>E "D"F>A"A"E>c|"Bm"(3def "E"(3efg "A"
a<A A||!
|g|"A"a>Ag>A "D"f>A"A"e>A|"Bm"d>B d/c/B/A/ "E"Gg|"A"a>Ag>A "D"f>A"A
"e>A|"Bm"(3def "E"(3efg "A"a<AA>g|!
"D"(3afa "E"(3geg "D"(3fdf "A"(3ece|
"Bm"d>B d/c/B/A/ "E"Gc|"A"A>BA>E "D"F>A"A"E>c
|1"Bm"(3def "E"(3efg "A"(3aed "E"(3cdB:|2"Bm"(3def "E"(3efg "A"a<A A||
